X: 996
T: Uncle Henry
B: jims roots
M:C|
L:1/8
R: Reel
Q: 1/4=100
K:D
V:1 
%F:http://gigandet.drupalgardens.com/sites/gigandet.drupalgardens.com/files/UncleHenry.pdf
AB|:"D"dBdA BdA2|d4-d2 AB|dBdA Bd A2|"A"([e2e2][ee])[ef][e2e2] Bd|
"D"[df]d[df]d efd2|B2d2D2-DE|:FEFA [F2B2][F2A2]|F4-F2 DE|FEFA [F2B2][F2A2]|D4-D2 DE:|]
% abcbook-tune_id 6298c29741b156d5e40d4af2


% abcbook-boost 0
% abcbook-tablature 
% abcbook-transpose 
% abcbook-lastupdated 1654178456489
% abcbook-soundfonts 
% abcbook-repeats 1


